icons/Filled/watch-circle.svg

<svg width="24" height="24" viewBox="0 0 24 24" fill="none" xmlns="http://www.w3.org/2000/svg">
<path fill-rule="evenodd" clip-rule="evenodd" d="M7.75 3C7.75 2.586 8.086 2.25 8.5 2.25H14.5C14.914 2.25 15.25 2.586 15.25 3C15.25 3.414 14.914 3.75 14.5 3.75H8.5C8.086 3.75 7.75 3.414 7.75 3ZM19.75 12C19.75 12.41 19.41 12.75 19 12.75H18C17.999 12.75 17.9819 12.75 17.9529 12.75C17.5809 15.986 14.836 18.5 11.5 18.5C7.91 18.5 5 15.59 5 12C5 8.41 7.91 5.5 11.5 5.5C14.836 5.5 17.5809 8.014 17.9529 11.25H19C19.41 11.25 19.75 11.59 19.75 12ZM13.95 12.8999L12.25 11.625V8.5C12.25 8.086 11.914 7.75 11.5 7.75C11.086 7.75 10.75 8.086 10.75 8.5V12C10.75 12.236 10.861 12.4581 11.05 12.6001L13.05 14.1001C13.185 14.2011 13.343 14.25 13.499 14.25C13.728 14.25 13.9531 14.146 14.1001 13.95C14.3491 13.619 14.281 13.1479 13.95 12.8999ZM14.5 20.25H8.5C8.086 20.25 7.75 20.586 7.75 21C7.75 21.414 8.086 21.75 8.5 21.75H14.5C14.914 21.75 15.25 21.414 15.25 21C15.25 20.586 14.914 20.25 14.5 20.25Z" fill="#25314C"/>
</svg>

<svg id="Layer" xmlns="http://www.w3.org/2000/svg" viewBox="0 0 24 24"><defs><style>.cls-1{fill:#25314c;fill-rule:evenodd;}</style></defs><path id="watch-circle" class="cls-1" d="M7.75,3a.75.75,0,0,1,.75-.75h6a.75.75,0,0,1,0,1.5h-6A.75.75,0,0,1,7.75,3Zm12,9a.755.755,0,0,1-.75.75H17.953a6.5,6.5,0,1,1,0-1.5H19A.755.755,0,0,1,19.75,12Zm-5.8.9-1.7-1.275V8.5a.75.75,0,0,0-1.5,0V12a.75.75,0,0,0,.3.6l2,1.5a.75.75,0,0,0,.9-1.2Zm.55,7.35h-6a.75.75,0,0,0,0,1.5h6a.75.75,0,0,0,0-1.5Z"/></svg>
